X: 19025
T: Into The Way
R: jig
M: 6/8
K: Eminor
|:E2 G ABg|eBA GAB|DFA dBf-|feB AGE|
EGB ABg|eBA GAB|1 AcB GBB|FAB DEF:|2 BcA F3|F2F dcB||
|:e2 B AGE|FGA Bde|e2 B gfe|BAG GAB|
[1 g2 B BAB|f2 A AGA|DFA def|gfe BAG:|
[2 e2 B AGE|F3 z3||

